resources/svg/message-text-alt.svg

<svg xmlns="http://www.w3.org/2000/svg" viewBox="0 0 15 15" fill="currentColor"><path fill-rule="evenodd" clip-rule="evenodd" d="M0 1.49933C0 0.670226 0.671178 0 1.5 0H13.5C14.3288 0 15 0.670226 15 1.49933V10.4935C15 11.3226 14.3288 11.9928 13.5 11.9928H7.66658L3.79988 14.8909C3.64835 15.0045 3.44568 15.0227 3.27632 14.938C3.10697 14.8533 3 14.6802 3 14.4908V11.9928H1.5C0.671178 11.9928 0 11.3226 0 10.4935V1.49933ZM4 3.99738H11V4.99738H4V3.99738ZM4 6.99542H9V7.99542H4V6.99542Z" fill="black"/></svg>

<svg xmlns="http://www.w3.org/2000/svg" viewBox="0 0 15 15" fill="currentColor"><path fill-rule="evenodd" clip-rule="evenodd" d="M0 1.5C0 .67.671 0 1.5 0h12c.829 0 1.5.67 1.5 1.5v8.993c0 .83-.671 1.5-1.5 1.5H7.667L3.8 14.89a.5.5 0 01-.8-.4v-2.498H1.5c-.829 0-1.5-.67-1.5-1.5V1.5zm4 2.497h7v1H4v-1zm0 2.998h5v1H4v-1z" fill="currentColor"/></svg>
